; G-Code generated by Simplify3D(R) Version 4.1.1
; May 21, 2020 at 8:47:33 PM
; Settings Summary
;   processName,Process1
;   applyToModels,Rot30Ang25Bracket,Rot30Ang35Bracket
;   profileName,Default (modified)
;   profileVersion,2017-03-01 08:00:00
;   baseProfile,
;   printMaterial,PLA
;   printQuality,Medium
;   printExtruders,
;   extruderName,Primary Extruder
;   extruderToolheadNumber,0
;   extruderDiameter,0.35
;   extruderAutoWidth,0
;   extruderWidth,0.4
;   extrusionMultiplier,0.9
;   extruderUseRetract,1
;   extruderRetractionDistance,1
;   extruderExtraRestartDistance,0
;   extruderRetractionZLift,0
;   extruderRetractionSpeed,1800
;   extruderUseCoasting,0
;   extruderCoastingDistance,0.2
;   extruderUseWipe,0
;   extruderWipeDistance,5
;   primaryExtruder,0
;   layerHeight,0.2
;   topSolidLayers,3
;   bottomSolidLayers,3
;   perimeterOutlines,2
;   printPerimetersInsideOut,1
;   startPointOption,2
;   startPointOriginX,0
;   startPointOriginY,0
;   sequentialIslands,0
;   spiralVaseMode,0
;   firstLayerHeightPercentage,100
;   firstLayerWidthPercentage,100
;   firstLayerUnderspeed,0.5
;   useRaft,0
;   raftExtruder,0
;   raftTopLayers,3
;   raftBaseLayers,2
;   raftOffset,3
;   raftSeparationDistance,0.14
;   raftTopInfill,100
;   aboveRaftSpeedMultiplier,0.3
;   useSkirt,1
;   skirtExtruder,0
;   skirtLayers,1
;   skirtOutlines,2
;   skirtOffset,4
;   usePrimePillar,0
;   primePillarExtruder,999
;   primePillarWidth,12
;   primePillarLocation,7
;   primePillarSpeedMultiplier,1
;   useOozeShield,0
;   oozeShieldExtruder,999
;   oozeShieldOffset,2
;   oozeShieldOutlines,1
;   oozeShieldSidewallShape,1
;   oozeShieldSidewallAngle,30
;   oozeShieldSpeedMultiplier,1
;   infillExtruder,0
;   internalInfillPattern,Rectilinear
;   externalInfillPattern,Rectilinear
;   infillPercentage,18
;   outlineOverlapPercentage,15
;   infillExtrusionWidthPercentage,100
;   minInfillLength,5
;   infillLayerInterval,1
;   internalInfillAngles,45,-45
;   overlapInternalInfillAngles,0
;   externalInfillAngles,45,-45
;   generateSupport,0
;   supportExtruder,0
;   supportInfillPercentage,20
;   supportExtraInflation,0
;   supportBaseLayers,1
;   denseSupportExtruder,0
;   denseSupportLayers,0
;   denseSupportInfillPercentage,70
;   supportLayerInterval,1
;   supportHorizontalPartOffset,0.3
;   supportUpperSeparationLayers,1
;   supportLowerSeparationLayers,1
;   supportType,0
;   supportGridSpacing,4
;   maxOverhangAngle,45
;   supportAngles,0
;   temperatureName,Primary Extruder,Bed
;   temperatureNumber,0,0
;   temperatureSetpointCount,1,1
;   temperatureSetpointLayers,1,1
;   temperatureSetpointTemperatures,210,60
;   temperatureStabilizeAtStartup,1,0
;   temperatureHeatedBed,0,1
;   fanLayers,1,2
;   fanSpeeds,0,100
;   blipFanToFullPower,0
;   adjustSpeedForCooling,1
;   minSpeedLayerTime,15
;   minCoolingSpeedSlowdown,20
;   increaseFanForCooling,0
;   minFanLayerTime,45
;   maxCoolingFanSpeed,100
;   increaseFanForBridging,0
;   bridgingFanSpeed,100
;   use5D,1
;   relativeEdistances,0
;   allowEaxisZeroing,1
;   independentExtruderAxes,0
;   includeM10123,0
;   stickySupport,1
;   applyToolheadOffsets,0
;   gcodeXoffset,0
;   gcodeYoffset,0
;   gcodeZoffset,0
;   overrideMachineDefinition,0
;   machineTypeOverride,0
;   strokeXoverride,200
;   strokeYoverride,200
;   strokeZoverride,200
;   originOffsetXoverride,0
;   originOffsetYoverride,0
;   originOffsetZoverride,0
;   homeXdirOverride,-1
;   homeYdirOverride,-1
;   homeZdirOverride,-1
;   flipXoverride,1
;   flipYoverride,-1
;   flipZoverride,1
;   toolheadOffsets,0,0|0,0|0,0|0,0|0,0|0,0
;   overrideFirmwareConfiguration,0
;   firmwareTypeOverride,RepRap (Marlin/Repetier/Sprinter)
;   GPXconfigOverride,r2
;   baudRateOverride,115200
;   overridePrinterModels,0
;   printerModelsOverride
;   startingGcode,G28 ; home all axes
;   layerChangeGcode,
;   retractionGcode,
;   toolChangeGcode,
;   endingGcode,M104 S0 ; turn off extruder,M140 S0 ; turn off bed,M84 ; disable motors,G28 X0 Y0 ;move X/Y to min endstops
;   exportFileFormat,gcode
;   celebration,0
;   celebrationSong,Random Song
;   postProcessing,
;   defaultSpeed,4250
;   outlineUnderspeed,0.5
;   solidInfillUnderspeed,0.8
;   supportUnderspeed,0.8
;   rapidXYspeed,4800
;   rapidZspeed,1000
;   minBridgingArea,50
;   bridgingExtraInflation,0
;   bridgingExtrusionMultiplier,1
;   bridgingSpeedMultiplier,1
;   useFixedBridgingAngle,0
;   fixedBridgingAngle,0
;   applyBridgingToPerimeters,0
;   filamentDiameters,1.75|1.75|1.75|1.75|1.75|1.75
;   filamentPricesPerKg,46|46|46|46|46|46
;   filamentDensities,1.25|1.25|1.25|1.25|1.25|1.25
;   useMinPrintHeight,0
;   minPrintHeight,0
;   useMaxPrintHeight,0
;   maxPrintHeight,0
;   useDiaphragm,0
;   diaphragmLayerInterval,20
;   robustSlicing,1
;   mergeAllIntoSolid,0
;   onlyRetractWhenCrossingOutline,1
;   retractBetweenLayers,1
;   useRetractionMinTravel,0
;   retractionMinTravel,3
;   retractWhileWiping,0
;   onlyWipeOutlines,1
;   avoidCrossingOutline,0
;   maxMovementDetourFactor,3
;   toolChangeRetractionDistance,12
;   toolChangeExtraRestartDistance,-0.5
;   toolChangeRetractionSpeed,600
;   externalThinWallType,0
;   internalThinWallType,2
;   thinWallAllowedOverlapPercentage,10
;   singleExtrusionMinLength,1
;   singleExtrusionMinPrintingWidthPercentage,50
;   singleExtrusionMaxPrintingWidthPercentage,200
;   singleExtrusionEndpointExtension,0.2
;   horizontalSizeCompensation,0
G90
M82
M106 S0
M140 S60
M104 S210 T0
M109 S210 T0
G28 ; home all axes
; process Process1
; layer 1, Z = 0.200
T0
G92 E0.0000
G1 E-1.0000 F1800
; feature skirt
; tool H0.200 W0.400
G1 Z0.200 F1000
G1 X64.095 Y70.844 F4800
G1 E0.0000 F1800
G92 E0.0000
G1 X99.405 Y70.844 E1.0570 F2125
G1 X99.528 Y70.967 E1.0622
G1 X100.595 Y69.901 E1.1073
G1 X135.905 Y69.901 E2.1643
G1 X138.600 Y72.596 E2.2784
G1 X138.600 Y111.677 E3.4483
G1 X137.900 Y113.367 E3.5030
G1 X118.606 Y132.661 E4.3198
G1 X116.915 Y133.362 E4.3746
G1 X103.723 Y133.362 E4.7695
G1 X103.570 Y133.356 E4.7741
G1 X103.005 Y133.319 E4.7910
G1 X102.639 Y133.265 E4.8021
G1 X101.971 Y133.110 E4.8226
G1 X101.536 Y132.963 E4.8364
G1 X100.859 Y132.655 E4.8586
G1 X100.397 Y132.375 E4.8748
G1 X99.775 Y131.892 E4.8984
G1 X99.370 Y131.486 E4.9155
G1 X98.886 Y130.864 E4.9391
G1 X98.606 Y130.402 E4.9553
G1 X98.298 Y129.723 E4.9776
G1 X98.151 Y129.288 E4.9914
G1 X97.997 Y128.621 E5.0119
G1 X97.943 Y128.256 E5.0229
G1 X97.905 Y127.691 E5.0399
G1 X97.900 Y127.538 E5.0444
G1 X97.900 Y117.810 E5.3356
G1 X82.106 Y133.605 E6.0043
G1 X80.415 Y134.305 E6.0590
G1 X67.420 Y134.305 E6.4480
G1 X67.211 Y134.296 E6.4543
G1 X66.377 Y134.220 E6.4794
G1 X65.856 Y134.111 E6.4953
G1 X64.896 Y133.791 E6.5256
G1 X64.284 Y133.479 E6.5462
G1 X63.398 Y132.846 E6.5787
G1 X62.859 Y132.308 E6.6015
G1 X62.226 Y131.422 E6.6341
G1 X61.914 Y130.809 E6.6547
G1 X61.594 Y129.849 E6.6850
G1 X61.485 Y129.328 E6.7009
G1 X61.409 Y128.494 E6.7260
G1 X61.400 Y128.285 E6.7323
G1 X61.400 Y73.539 E8.3710
G1 X64.095 Y70.844 E8.4851
G92 E0.0000
G1 E-1.0000 F1800
G1 X64.260 Y71.244 F4800
G1 E0.0000 F1800
G92 E0.0000
G1 X99.240 Y71.244 E1.0471 F2125
G1 X99.528 Y71.533 E1.0593
G1 X100.760 Y70.301 E1.1114
G1 X135.740 Y70.301 E2.1585
G1 X138.200 Y72.761 E2.2627
G1 X138.200 Y111.597 E3.4252
G1 X137.561 Y113.141 E3.4752
G1 X118.379 Y132.322 E4.2872
G1 X116.835 Y132.962 E4.3372
G1 X103.730 Y132.962 E4.7295
G1 X103.590 Y132.957 E4.7337
G1 X103.048 Y132.921 E4.7500
G1 X102.714 Y132.871 E4.7601
G1 X102.081 Y132.725 E4.7796
G1 X101.684 Y132.590 E4.7921
G1 X101.046 Y132.300 E4.8131
G1 X100.624 Y132.045 E4.8278
G1 X100.040 Y131.591 E4.8500
G1 X99.670 Y131.221 E4.8656
G1 X99.216 Y130.637 E4.8878
G1 X98.961 Y130.215 E4.9026
G1 X98.670 Y129.575 E4.9236
G1 X98.536 Y129.179 E4.9361
G1 X98.390 Y128.547 E4.9555
G1 X98.341 Y128.214 E4.9656
G1 X98.305 Y127.671 E4.9819
G1 X98.300 Y127.531 E4.9861
G1 X98.300 Y116.845 E5.3060
G1 X81.879 Y133.266 E6.0011
G1 X80.335 Y133.905 E6.0511
G1 X67.429 Y133.905 E6.4375
G1 X67.238 Y133.896 E6.4432
G1 X66.436 Y133.823 E6.4673
G1 X65.961 Y133.724 E6.4819
G1 X65.051 Y133.421 E6.5105
G1 X64.492 Y133.136 E6.5293
G1 X63.657 Y132.540 E6.5600
G1 X63.165 Y132.048 E6.5809
G1 X62.569 Y131.213 E6.6116
G1 X62.284 Y130.654 E6.6304
G1 X61.981 Y129.744 E6.6591
G1 X61.882 Y129.269 E6.6736
G1 X61.809 Y128.466 E6.6977
G1 X61.800 Y128.276 E6.7034
G1 X61.800 Y73.705 E8.3370
G1 X64.260 Y71.244 E8.4411
G92 E0.0000
G1 E-1.0000 F1800
; feature inner perimeter
G1 X66.600 Y76.044 F4800
G1 E0.0000 F1800
G92 E0.0000
G1 X96.900 Y76.044 E0.9070 F1594
G1 X96.900 Y111.457 E1.9670
G1 X79.251 Y129.105 E2.7142
G1 X67.551 Y129.105 E3.0644
G1 X67.182 Y129.072 E3.0755
G1 X66.953 Y128.995 E3.0827
G1 X66.811 Y128.894 E3.0879
G1 X66.710 Y128.752 E3.0931
G1 X66.634 Y128.523 E3.1004
G1 X66.600 Y128.154 E3.1115
G1 X66.600 Y76.044 E4.6713
; feature outer perimeter
G1 X66.200 Y75.644 F4800
G92 E0.0000
G1 X97.300 Y75.644 E0.9310 F1063
G1 X97.300 Y111.622 E2.0079
G1 X79.417 Y129.505 E2.7650
G1 X67.533 Y129.505 E3.1207
G1 X67.100 Y129.466 E3.1337
G1 X66.769 Y129.355 E3.1442
G1 X66.524 Y129.181 E3.1532
G1 X66.350 Y128.936 E3.1622
G1 X66.239 Y128.606 E3.1726
G1 X66.200 Y128.172 E3.1856
G1 X66.200 Y75.644 E4.7580
; feature solid layer
G1 X96.183 Y76.384 F4800
G92 E0.0000
G1 X96.560 Y76.761 E0.0159 F1700
G1 X96.560 Y77.327 E0.0329
G1 X95.618 Y76.384 E0.0728
G1 X95.052 Y76.384 E0.0897
G1 X96.560 Y77.892 E0.1535
G1 X96.560 Y78.458 E0.1705
G1 X94.486 Y76.384 E0.2582
G1 X93.921 Y76.384 E0.2752
G1 X96.560 Y79.024 E0.3869
G1 X96.560 Y79.589 E0.4038
G1 X93.355 Y76.384 E0.5395
G1 X92.789 Y76.384 E0.5565
G1 X96.560 Y80.155 E0.7161
G1 X96.560 Y80.721 E0.7330
G1 X92.224 Y76.384 E0.9166
G1 X91.658 Y76.384 E0.9335
G1 X96.560 Y81.286 E1.1410
G1 X96.560 Y81.852 E1.1580
G1 X91.092 Y76.384 E1.3894
G1 X90.527 Y76.384 E1.4064
G1 X96.560 Y82.418 E1.6618
G1 X96.560 Y82.984 E1.6787
G1 X89.961 Y76.384 E1.9581
G1 X89.395 Y76.384 E1.9750
G1 X96.560 Y83.549 E2.2783
G1 X96.560 Y84.115 E2.2953
G1 X88.830 Y76.384 E2.6225
G1 X88.264 Y76.384 E2.6394
G1 X96.560 Y84.681 E2.9906
G1 X96.560 Y85.246 E3.0076
G1 X87.698 Y76.384 E3.3827
G1 X87.132 Y76.384 E3.3997
G1 X96.560 Y85.812 E3.7988
G1 X96.560 Y86.378 E3.8157
G1 X86.567 Y76.384 E4.2387
G1 X86.001 Y76.384 E4.2557
G1 X96.560 Y86.943 E4.7027
G1 X96.560 Y87.509 E4.7196
G1 X85.435 Y76.384 E5.1905
G1 X84.870 Y76.384 E5.2075
G1 X96.560 Y88.075 E5.7024
G1 X96.560 Y88.640 E5.7193
G1 X84.304 Y76.384 E6.2381
G1 X83.738 Y76.384 E6.2551
G1 X96.560 Y89.206 E6.7978
G1 X96.560 Y89.772 E6.8148
G1 X83.173 Y76.384 E7.3815
G1 X82.607 Y76.384 E7.3984
G1 X96.560 Y90.337 E7.9891
G1 X96.560 Y90.903 E8.0060
G1 X82.041 Y76.384 E8.6207
G1 X81.476 Y76.384 E8.6376
G1 X96.560 Y91.469 E9.2762
G1 X96.560 Y92.035 E9.2931
G1 X80.910 Y76.384 E9.9556
G1 X80.344 Y76.384 E9.9726
G1 X96.560 Y92.600 E10.6590
G1 X96.560 Y93.166 E10.6760
G1 X79.779 Y76.384 E11.3864
G1 X79.213 Y76.384 E11.4033
G1 X96.560 Y93.732 E12.1377
G1 X96.560 Y94.297 E12.1546
G1 X78.647 Y76.384 E12.9129
G1 X78.082 Y76.384 E12.9298
G1 X96.560 Y94.863 E13.7121
G1 X96.560 Y95.429 E13.7290
G1 X77.516 Y76.384 E14.5352
G1 X76.950 Y76.384 E14.5522
G1 X96.560 Y95.994 E15.3823
G1 X96.560 Y96.560 E15.3992
G1 X76.384 Y76.384 E16.2533
G1 X75.819 Y76.384 E16.2703
G1 X96.560 Y97.126 E17.1483
G1 X96.560 Y97.691 E17.1652
G1 X75.253 Y76.384 E18.0672
G1 X74.687 Y76.384 E18.0842
G1 X96.560 Y98.257 E19.0101
G1 X96.560 Y98.823 E19.0270
G1 X74.122 Y76.384 E19.9769
G1 X73.556 Y76.384 E19.9939
G1 X96.560 Y99.388 E20.9677
G1 X96.560 Y99.954 E20.9846
G1 X72.990 Y76.384 E21.9824
G1 X72.425 Y76.384 E21.9993
G1 X96.560 Y100.520 E23.0211
G1 X96.560 Y101.085 E23.0380
G1 X71.859 Y76.384 E24.0837
G1 X71.293 Y76.384 E24.1006
G1 X96.560 Y101.651 E25.1702
G1 X96.560 Y102.217 E25.1872
G1 X70.728 Y76.384 E26.2807
G1 X70.162 Y76.384 E26.2977
G1 X96.560 Y102.783 E27.4152
G1 X96.560 Y103.348 E27.4321
G1 X69.596 Y76.384 E28.5736
G1 X69.031 Y76.384 E28.5905
G1 X96.560 Y103.914 E29.7559
G1 X96.560 Y104.480 E29.7729
G1 X68.465 Y76.384 E30.9622
G1 X67.899 Y76.384 E30.9791
G1 X96.560 Y105.045 E32.1925
G1 X96.560 Y105.611 E32.2094
G1 X67.333 Y76.384 E33.4466
G1 X66.940 Y76.384 E33.4584
G1 X66.940 Y76.557 E33.4636
G1 X96.560 Y106.177 E34.7175
G1 X96.560 Y106.742 E34.7344
G1 X66.940 Y77.122 E35.9883
G1 X66.940 Y77.688 E36.0053
G1 X96.560 Y107.308 E37.2592
G1 X96.560 Y107.874 E37.2761
G1 X66.940 Y78.254 E38.5300
G1 X66.940 Y78.819 E38.5470
G1 X96.560 Y108.439 E39.8009
G1 X96.560 Y109.005 E39.8178
G1 X66.940 Y79.385 E41.0717
G1 X66.940 Y79.951 E41.0886
G1 X96.560 Y109.571 E42.3425
G1 X96.560 Y110.136 E42.3595
G1 X66.940 Y80.516 E43.6134
G1 X66.940 Y81.082 E43.6303
G1 X96.560 Y110.702 E44.8842
G1 X96.560 Y111.268 E44.9012
G1 X66.940 Y81.648 E46.1551
G1 X66.940 Y82.213 E46.1720
G1 X96.301 Y111.575 E47.4150
G1 X96.018 Y111.857 E47.4269
G1 X66.940 Y82.779 E48.6579
G1 X66.940 Y83.345 E48.6748
G1 X95.735 Y112.140 E49.8939
G1 X95.453 Y112.423 E49.9058
G1 X66.940 Y83.911 E51.1129
G1 X66.940 Y84.476 E51.1298
G1 X95.170 Y112.706 E52.3248
G1 X94.887 Y112.989 E52.3368
G1 X66.940 Y85.042 E53.5199
G1 X66.940 Y85.608 E53.5368
G1 X94.604 Y113.272 E54.7079
G1 X94.321 Y113.555 E54.7199
G1 X66.940 Y86.173 E55.8791
G1 X66.940 Y86.739 E55.8960
G1 X94.038 Y113.837 E57.0431
G1 X93.756 Y114.120 E57.0551
G1 X66.940 Y87.305 E58.1903
G1 X66.940 Y87.870 E58.2072
G1 X93.473 Y114.403 E59.3305
G1 X93.190 Y114.686 E59.3424
G1 X66.940 Y88.436 E60.4537
G1 X66.940 Y89.002 E60.4706
G1 X92.907 Y114.969 E61.5699
G1 X92.624 Y115.252 E61.5818
G1 X66.940 Y89.567 E62.6691
G1 X66.940 Y90.133 E62.6861
G1 X92.341 Y115.534 E63.7614
G1 X92.058 Y115.817 E63.7734
G1 X66.940 Y90.699 E64.8367
G1 X66.940 Y91.264 E64.8536
G1 X91.776 Y116.100 E65.9050
G1 X91.493 Y116.383 E65.9170
G1 X66.940 Y91.830 E66.9564
G1 X66.940 Y92.396 E66.9733
G1 X91.210 Y116.666 E68.0008
G1 X90.927 Y116.949 E68.0127
G1 X66.940 Y92.962 E69.0282
G1 X66.940 Y93.527 E69.0451
G1 X90.644 Y117.231 E70.0486
G1 X90.361 Y117.514 E70.0606
G1 X66.940 Y94.093 E71.0521
G1 X66.940 Y94.659 E71.0690
G1 X90.079 Y117.797 E72.0485
G1 X89.796 Y118.080 E72.0605
G1 X66.940 Y95.224 E73.0281
G1 X66.940 Y95.790 E73.0450
G1 X89.513 Y118.363 E74.0006
G1 X89.230 Y118.646 E74.0126
G1 X66.940 Y96.356 E74.9562
G1 X66.940 Y96.921 E74.9731
G1 X88.947 Y118.929 E75.9047
G1 X88.664 Y119.211 E75.9167
G1 X66.940 Y97.487 E76.8364
G1 X66.940 Y98.053 E76.8533
G1 X88.382 Y119.494 E77.7610
G1 X88.099 Y119.777 E77.7730
G1 X66.940 Y98.618 E78.6687
G1 X66.940 Y99.184 E78.6856
G1 X87.816 Y120.060 E79.5694
G1 X87.533 Y120.343 E79.5813
G1 X66.940 Y99.750 E80.4531
G1 X66.940 Y100.315 E80.4700
G1 X87.250 Y120.626 E81.3298
G1 X86.967 Y120.908 E81.3418
G1 X66.940 Y100.881 E82.1896
G1 X66.940 Y101.447 E82.2065
G1 X86.684 Y121.191 E83.0424
G1 X86.402 Y121.474 E83.0544
G1 X66.940 Y102.012 E83.8782
G1 X66.940 Y102.578 E83.8952
G1 X86.119 Y121.757 E84.7071
G1 X85.836 Y122.040 E84.7190
G1 X66.940 Y103.144 E85.5190
G1 X66.940 Y103.710 E85.5359
G1 X85.553 Y122.323 E86.3239
G1 X85.270 Y122.605 E86.3358
G1 X66.940 Y104.275 E87.1118
G1 X66.940 Y104.841 E87.1287
G1 X84.987 Y122.888 E87.8928
G1 X84.705 Y123.171 E87.9047
G1 X66.940 Y105.407 E88.6568
G1 X66.940 Y105.972 E88.6737
G1 X84.422 Y123.454 E89.4137
G1 X84.139 Y123.737 E89.4257
G1 X66.940 Y106.538 E90.1538
G1 X66.940 Y107.104 E90.1707
G1 X83.856 Y124.020 E90.8869
G1 X83.573 Y124.303 E90.8988
G1 X66.940 Y107.669 E91.6030
G1 X66.940 Y108.235 E91.6199
G1 X83.290 Y124.585 E92.3121
G1 X83.008 Y124.868 E92.3240
G1 X66.940 Y108.801 E93.0042
G1 X66.940 Y109.366 E93.0212
G1 X82.725 Y125.151 E93.6894
G1 X82.442 Y125.434 E93.7013
G1 X66.940 Y109.932 E94.3576
G1 X66.940 Y110.498 E94.3745
G1 X82.159 Y125.717 E95.0188
G1 X81.876 Y126.000 E95.0308
G1 X66.940 Y111.063 E95.6631
G1 X66.940 Y111.629 E95.6800
G1 X81.593 Y126.282 E96.3003
G1 X81.310 Y126.565 E96.3123
G1 X66.940 Y112.195 E96.9206
G1 X66.940 Y112.761 E96.9376
G1 X81.028 Y126.848 E97.5339
G1 X80.745 Y127.131 E97.5459
G1 X66.940 Y113.326 E98.1303
G1 X66.940 Y113.892 E98.1472
G1 X80.462 Y127.414 E98.7197
G1 X80.179 Y127.697 E98.7316
